X: 1
T: MAGGIE PICKING COCKELS -- REEL
B: Ryan's Mammoth Collection of Fiddle Tunes
R: reel
M: 2/4
L: 1/16
Z: Contributed 20000424175615 by John Chambers jchambers:casc.com
K: Dmix
(uFG) "Segno"|]\
Addc AGEF | GEcE dEcE | Addc AGEF | GEcE EDFG |
Addc AGEF | GEcE dEcE | Addc AGEF | GEcE EDD2 H[|]|]
K:D
: f2fd e2ed | cAAB cdeg | f2fd e2ed | eage edd2 |
  f2fd e2ed cAAB c3d | edcA AGEF | GEcE EDD2 "Segno"[|]:|
